src/activities/sport/1F3D1.svg

<svg id="emoji" viewBox="0 0 72 72" xmlns="http://www.w3.org/2000/svg">
  <g id="grid">
    <path fill="#b3b3b3" d="M68,4V68H4V4H68m4-4H0V72H72V0Z"/>
    <path fill="none" stroke="#00a5ff" stroke-miterlimit="10" stroke-width="0.1" d="M12.923,10.9583H59.0769A1.9231,1.9231,0,0,1,61,12.8814V59.0352a1.9231,1.9231,0,0,1-1.9231,1.9231H12.9231A1.9231,1.9231,0,0,1,11,59.0352V12.8813A1.923,1.923,0,0,1,12.923,10.9583Z"/>
    <rect x="16" y="4" rx="2.2537" width="40" height="64" fill="none" stroke="#00a5ff" stroke-miterlimit="10" stroke-width="0.1"/>
    <rect x="16" y="4" rx="2.2537" width="40" height="64" transform="translate(72) rotate(90)" fill="none" stroke="#00a5ff" stroke-miterlimit="10" stroke-width="0.1"/>
    <circle cx="36" cy="36" r="29" fill="none" stroke="#00a5ff" stroke-miterlimit="10" stroke-width="0.1"/>
  </g>
  <g id="color">
    <path fill="#a57939" stroke="none" d="M28.0173,62.7147c-2.6148,4.3359-8.2494,5.7311-12.5853,3.1163s-5.7311-8.2494-3.1163-12.5853 l-0.0479,0.0795c1.3431-2.2271,4.2373-2.9438,6.4644-1.6007s2.9438,4.2373,1.6007,6.4644 c-0.5394,0.8945-0.2516,2.057,0.6429,2.5964s2.057,0.2516,2.5964-0.6429l0.0104-0.0168L56.3124,5.842 c0.5834-0.9674,1.8521-1.2815,2.8195-0.6981l0.4397,0.2652l0.4397,0.2652c0.9674,0.5834,1.2815,1.8521,0.6981,2.8195 L27.9771,62.7814L28.0173,62.7147z"/>
    <path fill="#6A462F" stroke="none" d="M15.6043,51.8464c2.2271,1.3431,2.9438,4.2373,1.6006,6.4644c-0.5394,0.8945-0.2516,2.057,0.6429,2.5964 c0.8869,0.5349,2.0356,0.2546,2.5808-0.6221c-0.4382-0.597-0.5021-1.4224-0.0957-2.0963c1.3431-2.2271,0.6264-5.1214-1.6007-6.4645 c-1.3087-0.7892-2.8417-0.85-4.161-0.3283C14.9248,51.5065,15.273,51.6466,15.6043,51.8464z"/>
    <path fill="#6A462F" stroke="none" d="M60.0113,5.6742l-0.4397-0.2651l-0.0349-0.021L24.8491,62.9034l0.0402-0.0667 c-1.3668,2.2665-3.5609,3.72-5.9612,4.2267c3.5151,0.4774,7.1403-1.1175,9.0889-4.3481L61.4438,9.2281 C62.0272,8.2607,60.9786,6.2576,60.0113,5.6742z"/>
    <circle cx="52.2459" cy="60.8687" r="5" fill="#EA5A47" stroke="none"/>
    <path fill="#D22F27" stroke="none" d="M54.9365,56.6588c0.4978,0.7773,0.7901,1.699,0.7901,2.6905c0,2.7614-2.2386,5-5,5 c-0.9916,0-1.9132-0.2923-2.6905-0.7902c0.8886,1.3874,2.44,2.3094,4.2099,2.3094c2.7614,0,5-2.2386,5-5 C57.2459,59.0988,56.3239,57.5473,54.9365,56.6588z"/>
  </g>
  <g id="hair"/>
  <g id="skin"/>
  <g id="skin-shadow"/>
  <g id="line">
    <circle cx="52.2459" cy="60.8687" r="5" fill="none" stroke="#000000" stroke-linecap="round" stroke-linejoin="round" stroke-miterlimit="10" stroke-width="2"/>
    <path fill="none" stroke="#000000" stroke-linecap="round" stroke-linejoin="round" stroke-miterlimit="10" stroke-width="2" d="M58.208,12.5205L28.0173,62.7147l0,0c-2.6148,4.3359-8.2494,5.7311-12.5853,3.1163s-5.7311-8.2494-3.1163-12.5853l-0.0479,0.0795 c1.3431-2.2271,4.2373-2.9438,6.4644-1.6007s2.9438,4.2373,1.6007,6.4644c-0.5394,0.8945-0.2516,2.057,0.6429,2.5964 s2.057,0.2516,2.5964-0.6429l0.0104-0.0168L56.3124,5.842c0.5834-0.9674,1.8521-1.2815,2.8195-0.6981l0.4397,0.2652l0.4397,0.2652 c0.9674,0.5834,1.2815,1.8521,0.6981,2.8195l-0.385,0.6385"/>
  </g>
</svg>

<svg viewBox="0 0 72 72" xmlns="http://www.w3.org/2000/svg"><path fill="#b3b3b3" d="M68 4v64H4V4h64m4-4H0v72h72V0z"/><path fill="none" stroke="#00a5ff" stroke-miterlimit="10" stroke-width=".1" d="M12.923 10.958h46.154A1.923 1.923 0 0161 12.881v46.154a1.923 1.923 0 01-1.923 1.923H12.923A1.923 1.923 0 0111 59.035V12.881a1.923 1.923 0 011.923-1.923z"/><rect x="16" y="4" rx="2.254" width="40" height="64" fill="none" stroke="#00a5ff" stroke-miterlimit="10" stroke-width=".1"/><rect x="16" y="4" rx="2.254" width="40" height="64" transform="rotate(90 36 36)" fill="none" stroke="#00a5ff" stroke-miterlimit="10" stroke-width=".1"/><circle cx="36" cy="36" r="29" fill="none" stroke="#00a5ff" stroke-miterlimit="10" stroke-width=".1"/><g stroke-linecap="round" stroke-miterlimit="10" stroke-width="6" stroke="#fff" fill="none" stroke-linejoin="round"><circle cx="52.246" cy="60.869" r="5"/><path d="M58.208 12.52l-30.19 50.195h0a9.168 9.168 0 11-15.702-9.47l-.048.08a4.71 4.71 0 118.065 4.864 1.891 1.891 0 003.24 1.953l.01-.016 32.73-54.284a2.06 2.06 0 012.819-.698l.44.265.44.265a2.06 2.06 0 01.697 2.82l-.385.638"/></g><path fill="#a57939" d="M28.017 62.715a9.168 9.168 0 11-15.701-9.47l-.048.08a4.71 4.71 0 118.065 4.864 1.891 1.891 0 003.24 1.953l.01-.016 32.73-54.284a2.06 2.06 0 012.819-.698l.44.265.44.265a2.06 2.06 0 01.697 2.82L27.977 62.78l.04-.066z"/><path fill="#6A462F" d="M15.604 51.846a4.709 4.709 0 011.6 6.465 1.89 1.89 0 003.224 1.974 1.891 1.891 0 01-.095-2.096 4.71 4.71 0 00-1.6-6.465c-1.31-.789-2.842-.85-4.162-.328.354.11.702.25 1.033.45zM60.011 5.674l-.44-.265-.034-.02-34.688 57.514.04-.066a9.133 9.133 0 01-5.96 4.226 9.168 9.168 0 009.088-4.348L61.444 9.228c.583-.967-.465-2.97-1.433-3.554z"/><circle cx="52.246" cy="60.869" r="5" fill="#EA5A47"/><path fill="#D22F27" d="M54.937 56.659c.497.777.79 1.699.79 2.69a5 5 0 01-5 5 4.97 4.97 0 01-2.69-.79 4.992 4.992 0 004.209 2.31 5 5 0 005-5 4.99 4.99 0 00-2.31-4.21z"/><g fill="none" stroke="#000" stroke-linecap="round" stroke-linejoin="round" stroke-miterlimit="10" stroke-width="2"><circle cx="52.246" cy="60.869" r="5"/><path d="M58.208 12.52l-30.19 50.195h0a9.168 9.168 0 11-15.702-9.47l-.048.08a4.71 4.71 0 118.065 4.864 1.891 1.891 0 003.24 1.953l.01-.016 32.73-54.284a2.06 2.06 0 012.819-.698l.44.265.44.265a2.06 2.06 0 01.697 2.82l-.385.638"/></g></svg>
